X: 14828
T: Gardener's, The
R: jig
M: 6/8
K: Bminor
|:d2B cBA|FBB B2A|B2f fed|ede fdc|
dcB cBA|FBB B2A|Bcd cdA|1 B3 B2c:|2 B3 B2A||
|:B2f fed|ede fdc|A2e edc|ABc d2c|
B2f fed|ede fdc|edc dcA|1 B3 B2A:|2 B3 B2c||

